X: 36759
T: Sheldon MacNeil's
R: reel
M: 4/4
K: Gmixolydian
|:c|B2 Ac BG^FG|G,B,DG Bdge|~f2 eg fdcA|FGAF cFAc|
B2 Ac BG^FG|G,B,DG Bdge|fdcA FGAc|BdcA G3:|
|:^f|gd (3ddd gdBG|G,B,DG Bdge|fc~c2 fcag|fdcA FGAF|
GG, (3G,G,G, B,DGB|dgba gfde|fdcA FGAc|BdcA BGG:|

